; G-Code generated by Simplify3D(R) Version 4.1.2
; Jul 31, 2025 at 2:34:04 PM
; Settings Summary
;   processName,Process1
;   applyToModels,MWR-31072025 (2)
;   profileName,Default
;   profileVersion,2017-03-01 08:00:00
;   baseProfile,
;   printMaterial,PLA
;   printQuality,Medium
;   printExtruders,
;   extruderName,Primary Extruder
;   extruderToolheadNumber,0
;   extruderDiameter,0.35
;   extruderAutoWidth,0
;   extruderWidth,0.4
;   extrusionMultiplier,0.9
;   extruderUseRetract,1
;   extruderRetractionDistance,1
;   extruderExtraRestartDistance,0
;   extruderRetractionZLift,0
;   extruderRetractionSpeed,1800
;   extruderUseCoasting,0
;   extruderCoastingDistance,0.2
;   extruderUseWipe,0
;   extruderWipeDistance,5
;   primaryExtruder,0
;   layerHeight,0.2
;   topSolidLayers,3
;   bottomSolidLayers,3
;   perimeterOutlines,2
;   printPerimetersInsideOut,1
;   startPointOption,2
;   startPointOriginX,0
;   startPointOriginY,0
;   sequentialIslands,0
;   spiralVaseMode,0
;   firstLayerHeightPercentage,100
;   firstLayerWidthPercentage,100
;   firstLayerUnderspeed,0.5
;   useRaft,0
;   raftExtruder,0
;   raftTopLayers,3
;   raftBaseLayers,2
;   raftOffset,3
;   raftSeparationDistance,0.14
;   raftTopInfill,100
;   aboveRaftSpeedMultiplier,0.3
;   useSkirt,1
;   skirtExtruder,0
;   skirtLayers,1
;   skirtOutlines,2
;   skirtOffset,4
;   usePrimePillar,0
;   primePillarExtruder,999
;   primePillarWidth,12
;   primePillarLocation,7
;   primePillarSpeedMultiplier,1
;   useOozeShield,0
;   oozeShieldExtruder,999
;   oozeShieldOffset,2
;   oozeShieldOutlines,1
;   oozeShieldSidewallShape,1
;   oozeShieldSidewallAngle,30
;   oozeShieldSpeedMultiplier,1
;   infillExtruder,0
;   internalInfillPattern,Rectilinear
;   externalInfillPattern,Rectilinear
;   infillPercentage,20
;   outlineOverlapPercentage,15
;   infillExtrusionWidthPercentage,100
;   minInfillLength,5
;   infillLayerInterval,1
;   internalInfillAngles,45,-45
;   overlapInternalInfillAngles,0
;   externalInfillAngles,45,-45
;   generateSupport,1
;   supportExtruder,0
;   supportInfillPercentage,30
;   supportExtraInflation,0
;   supportBaseLayers,0
;   denseSupportExtruder,0
;   denseSupportLayers,0
;   denseSupportInfillPercentage,70
;   supportLayerInterval,1
;   supportHorizontalPartOffset,0.3
;   supportUpperSeparationLayers,1
;   supportLowerSeparationLayers,1
;   supportType,0
;   supportGridSpacing,4
;   maxOverhangAngle,45
;   supportAngles,0
;   temperatureName,Primary Extruder
;   temperatureNumber,0
;   temperatureSetpointCount,1
;   temperatureSetpointLayers,1
;   temperatureSetpointTemperatures,190
;   temperatureStabilizeAtStartup,1
;   temperatureHeatedBed,0
;   fanLayers,1,2
;   fanSpeeds,0,100
;   blipFanToFullPower,0
;   adjustSpeedForCooling,1
;   minSpeedLayerTime,15
;   minCoolingSpeedSlowdown,20
;   increaseFanForCooling,0
;   minFanLayerTime,45
;   maxCoolingFanSpeed,100
;   increaseFanForBridging,0
;   bridgingFanSpeed,100
;   use5D,1
;   relativeEdistances,0
;   allowEaxisZeroing,1
;   independentExtruderAxes,0
;   includeM10123,0
;   stickySupport,1
;   applyToolheadOffsets,0
;   gcodeXoffset,0
;   gcodeYoffset,0
;   gcodeZoffset,0
;   overrideMachineDefinition,0
;   machineTypeOverride,0
;   strokeXoverride,200
;   strokeYoverride,200
;   strokeZoverride,200
;   originOffsetXoverride,0
;   originOffsetYoverride,0
;   originOffsetZoverride,0
;   homeXdirOverride,-1
;   homeYdirOverride,-1
;   homeZdirOverride,-1
;   flipXoverride,1
;   flipYoverride,-1
;   flipZoverride,1
;   toolheadOffsets,0,0|0,0|0,0|0,0|0,0|0,0
;   overrideFirmwareConfiguration,0
;   firmwareTypeOverride,RepRap (Marlin/Repetier/Sprinter)
;   GPXconfigOverride,r2
;   baudRateOverride,115200
;   overridePrinterModels,0
;   printerModelsOverride
;   startingGcode,G28 ; home all axes
;   layerChangeGcode,
;   retractionGcode,
;   toolChangeGcode,
;   endingGcode,M104 S0 ; turn off extruder,M140 S0 ; turn off bed,M84 ; disable motors
;   exportFileFormat,gcode
;   celebration,0
;   celebrationSong,Random Song
;   postProcessing,
;   defaultSpeed,3600
;   outlineUnderspeed,0.5
;   solidInfillUnderspeed,0.8
;   supportUnderspeed,0.8
;   rapidXYspeed,4800
;   rapidZspeed,1000
;   minBridgingArea,50
;   bridgingExtraInflation,0
;   bridgingExtrusionMultiplier,1
;   bridgingSpeedMultiplier,1
;   useFixedBridgingAngle,0
;   fixedBridgingAngle,0
;   applyBridgingToPerimeters,0
;   filamentDiameters,1.75|1.75|1.75|1.75|1.75|1.75
;   filamentPricesPerKg,46|46|46|46|46|46
;   filamentDensities,1.25|1.25|1.25|1.25|1.25|1.25
;   useMinPrintHeight,0
;   minPrintHeight,0
;   useMaxPrintHeight,0
;   maxPrintHeight,0
;   useDiaphragm,0
;   diaphragmLayerInterval,20
;   robustSlicing,1
;   mergeAllIntoSolid,0
;   onlyRetractWhenCrossingOutline,1
;   retractBetweenLayers,1
;   useRetractionMinTravel,0
;   retractionMinTravel,3
;   retractWhileWiping,0
;   onlyWipeOutlines,1
;   avoidCrossingOutline,0
;   maxMovementDetourFactor,3
;   toolChangeRetractionDistance,12
;   toolChangeExtraRestartDistance,-0.5
;   toolChangeRetractionSpeed,600
;   externalThinWallType,0
;   internalThinWallType,2
;   thinWallAllowedOverlapPercentage,10
;   singleExtrusionMinLength,1
;   singleExtrusionMinPrintingWidthPercentage,50
;   singleExtrusionMaxPrintingWidthPercentage,200
;   singleExtrusionEndpointExtension,0.2
;   horizontalSizeCompensation,0
G90
M82
M106 S0
M104 S190 T0
M109 S190 T0
G28 ; home all axes
; process Process1
; layer 1, Z = 0.200
T0
G92 E0.0000
G1 E-1.0000 F1800
; feature skirt
; tool H0.200 W0.400
G1 Z0.200 F1000
G1 X-4.600 Y-1.905 F4800
G1 E0.0000 F1800
G92 E0.0000
G1 X-1.905 Y-4.600 E0.1141 F1800
G1 X241.905 Y-4.600 E7.4123
G1 X244.600 Y-1.905 E7.5264
G1 X244.600 Y181.905 E13.0286
G1 X241.905 Y184.600 E13.1427
G1 X-1.905 Y184.600 E20.4410
G1 X-4.600 Y181.905 E20.5550
G1 X-4.600 Y-1.905 E26.0572
G92 E0.0000
G1 E-1.0000 F1800
G1 X-4.200 Y-1.740 F4800
G1 E0.0000 F1800
G92 E0.0000
G1 X-1.740 Y-4.200 E0.1042 F1800
G1 X241.740 Y-4.200 E7.3925
G1 X244.200 Y-1.740 E7.4966
G1 X244.200 Y181.740 E12.9889
G1 X241.740 Y184.200 E13.0931
G1 X-1.740 Y184.200 E20.3814
G1 X-4.200 Y181.740 E20.4856
G1 X-4.200 Y-1.740 E25.9779
G92 E0.0000
G1 E-1.0000 F1800
; feature inner perimeter
G1 X0.600 Y0.600 F4800
G1 E0.0000 F1800
G92 E0.0000
G1 X239.400 Y0.600 E7.1483 F1350
G1 X239.400 Y179.400 E12.5005
G1 X0.600 Y179.400 E19.6488
G1 X0.600 Y0.600 E25.0010
; feature outer perimeter
G1 X0.200 Y0.200 F4800
G92 E0.0000
G1 X239.800 Y0.200 E7.1722 F900
G1 X239.800 Y179.800 E12.5484
G1 X0.200 Y179.800 E19.7206
G1 X0.200 Y0.200 E25.0968
; feature solid layer
G1 X1.453 Y179.060 F4800
G92 E0.0000
G1 X0.940 Y178.547 E0.0217 F1440
G1 X0.940 Y177.981 E0.0387
G1 X2.019 Y179.060 E0.0844
G1 X2.585 Y179.060 E0.1013
G1 X0.940 Y177.415 E0.1709
G1 X0.940 Y176.849 E0.1879
G1 X3.151 Y179.060 E0.2814
G1 X3.716 Y179.060 E0.2984
G1 X0.940 Y176.284 E0.4159
G1 X0.940 Y175.718 E0.4328
G1 X4.282 Y179.060 E0.5743
G1 X4.848 Y179.060 E0.5912
G1 X0.940 Y175.152 E0.7566
G1 X0.940 Y174.587 E0.7736
G1 X5.413 Y179.060 E0.9629
G1 X5.979 Y179.060 E0.9799
G1 X0.940 Y174.021 E1.1932
G1 X0.940 Y173.455 E1.2101
G1 X6.545 Y179.060 E1.4474
G1 X7.110 Y179.060 E1.4643
G1 X0.940 Y172.890 E1.7255
G1 X0.940 Y172.324 E1.7425
G1 X7.676 Y179.060 E2.0276
G1 X8.242 Y179.060 E2.0446
G1 X0.940 Y171.758 E2.3537
G1 X0.940 Y171.193 E2.3706
G1 X8.807 Y179.060 E2.7036
G1 X9.373 Y179.060 E2.7206
G1 X0.940 Y170.627 E3.0776
G1 X0.940 Y170.061 E3.0945
G1 X9.939 Y179.060 E3.4755
G1 X10.504 Y179.060 E3.4924
G1 X0.940 Y169.496 E3.8973
G1 X0.940 Y168.930 E3.9142
G1 X11.070 Y179.060 E4.3431
G1 X11.636 Y179.060 E4.3600
G1 X0.940 Y168.364 E4.8128
G1 X0.940 Y167.799 E4.8297
G1 X12.201 Y179.060 E5.3064
G1 X12.767 Y179.060 E5.3234
G1 X0.940 Y167.233 E5.8241
G1 X0.940 Y166.667 E5.8410
G1 X13.333 Y179.060 E6.3656
G1 X13.899 Y179.060 E6.3826
G1 X0.940 Y166.101 E6.9311
G1 X0.940 Y165.536 E6.9481
G1 X14.464 Y179.060 E7.5206
G1 X15.030 Y179.060 E7.5375
G1 X0.940 Y164.970 E8.1340
G1 X0.940 Y164.404 E8.1509
G1 X15.596 Y179.060 E8.7714
G1 X16.161 Y179.060 E8.7883
G1 X0.940 Y163.839 E9.4327
G1 X0.940 Y163.273 E9.4496
G1 X16.727 Y179.060 E10.1179
G1 X17.293 Y179.060 E10.1348
G1 X0.940 Y162.707 E10.8271
G1 X0.940 Y162.142 E10.8440
G1 X17.858 Y179.060 E11.5602
G1 X18.424 Y179.060 E11.5772
G1 X0.940 Y161.576 E12.3173
G1 X0.940 Y161.010 E12.3343
G1 X18.990 Y179.060 E13.0984
G1 X19.555 Y179.060 E13.1153
G1 X0.940 Y160.445 E13.9033
G1 X0.940 Y159.879 E13.9203
G1 X20.121 Y179.060 E14.7323
G1 X20.687 Y179.060 E14.7492
G1 X0.940 Y159.313 E15.5852
G1 X0.940 Y158.748 E15.6021
G1 X21.252 Y179.060 E16.4620
G1 X21.818 Y179.060 E16.4789
G1 X0.940 Y158.182 E17.3627
G1 X0.940 Y157.616 E17.3797
G1 X22.384 Y179.060 E18.2875
G1 X22.950 Y179.060 E18.3044
G1 X0.940 Y157.050 E19.2361
G1 X0.940 Y156.485 E19.2531
G1 X23.515 Y179.060 E20.2088
G1 X24.081 Y179.060 E20.2257
G1 X0.940 Y155.919 E21.2053
G1 X0.940 Y155.353 E21.2222
G1 X24.647 Y179.060 E22.2258
G1 X25.212 Y179.060 E22.2428
G1 X0.940 Y154.788 E23.2703
G1 X0.940 Y154.222 E23.2872
G1 X25.778 Y179.060 E24.3387
G1 X26.344 Y179.060 E24.3556
G1 X0.940 Y153.656 E25.4310
G1 X0.940 Y153.091 E25.4480
G1 X26.909 Y179.060 E26.5473
G1 X27.475 Y179.060 E26.5643
G1 X0.940 Y152.525 E27.6876
G1 X0.940 Y151.959 E27.7045
G1 X28.041 Y179.060 E28.8518
G1 X28.606 Y179.060 E28.8687
G1 X0.940 Y151.394 E30.0399
G1 X0.940 Y150.828 E30.0568
G1 X29.172 Y179.060 E31.2520
G1 X29.738 Y179.060 E31.2689
G1 X0.940 Y150.262 E32.4880
G1 X0.940 Y149.697 E32.5050
G1 X30.303 Y179.060 E33.7480
G1 X30.869 Y179.060 E33.7649
G1 X0.940 Y149.131 E35.0319
G1 X0.940 Y148.565 E35.0489
G1 X31.435 Y179.060 E36.3398
G1 X32.000 Y179.060 E36.3568
G1 X0.940 Y148.000 E37.6716
G1 X0.940 Y147.434 E37.6886
G1 X32.566 Y179.060 E39.0274
G1 X33.132 Y179.060 E39.0443
G1 X0.940 Y146.868 E40.4071
G1 X0.940 Y146.302 E40.4241
G1 X33.698 Y179.060 E41.8108
G1 X34.263 Y179.060 E41.8277
G1 X0.940 Y145.737 E43.2384
G1 X0.940 Y145.171 E43.2553
G1 X34.829 Y179.060 E44.6900
G1 X35.395 Y179.060 E44.7069
G1 X0.940 Y144.605 E46.1655
G1 X0.940 Y144.040 E46.1824
G1 X35.960 Y179.060 E47.6649
G1 X36.526 Y179.060 E47.6819
G1 X0.940 Y143.474 E49.1883
G1 X0.940 Y142.908 E49.2053
G1 X37.092 Y179.060 E50.7357
G1 X37.657 Y179.060 E50.7526
G1 X0.940 Y142.343 E52.3070
G1 X0.940 Y141.777 E52.3239
G1 X38.223 Y179.060 E53.9022
G1 X38.789 Y179.060 E53.9192
G1 X0.940 Y141.211 E55.5214
G1 X0.940 Y140.646 E55.5384
G1 X39.354 Y179.060 E57.1646
G1 X39.920 Y179.060 E57.1815
G1 X0.940 Y140.080 E58.8316
G1 X0.940 Y139.514 E58.8486
G1 X40.486 Y179.060 E60.5227
G1 X41.051 Y179.060 E60.5396
G1 X0.940 Y138.949 E62.2377
G1 X0.940 Y138.383 E62.2546
G1 X41.617 Y179.060 E63.9766
G1 X42.183 Y179.060 E63.9935
G1 X0.940 Y137.817 E65.7395
G1 X0.940 Y137.252 E65.7564
G1 X42.748 Y179.060 E67.5263
G1 X43.314 Y179.060 E67.5432
G1 X0.940 Y136.686 E69.3371
G1 X0.940 Y136.120 E69.3540
G1 X43.880 Y179.060 E71.1718
G1 X44.446 Y179.060 E71.1887
G1 X0.940 Y135.554 E73.0304
G1 X0.940 Y134.989 E73.0474
G1 X45.011 Y179.060 E74.9130
G1 X45.577 Y179.060 E74.9300
G1 X0.940 Y134.423 E76.8196
G1 X0.940 Y133.857 E76.8365
G1 X46.143 Y179.060 E78.7501
G1 X46.708 Y179.060 E78.7670
G1 X0.940 Y133.292 E80.7046
G1 X0.940 Y132.726 E80.7215
G1 X47.274 Y179.060 E82.6830
G1 X47.840 Y179.060 E82.6999
G1 X0.940 Y132.160 E84.6853
G1 X0.940 Y131.595 E84.7022
G1 X48.405 Y179.060 E86.7116
G1 X48.971 Y179.060 E86.7285
G1 X0.940 Y131.029 E88.7619
G1 X0.940 Y130.463 E88.7788
G1 X49.537 Y179.060 E90.8360
G1 X50.102 Y179.060 E90.8530
G1 X0.940 Y129.898 E92.9342
G1 X0.940 Y129.332 E92.9511
G1 X50.668 Y179.060 E95.0563
G1 X51.234 Y179.060 E95.0732
G1 X0.940 Y128.766 E97.2023
G1 X0.940 Y128.201 E97.2192
G1 X51.799 Y179.060 E99.3723
G1 X52.365 Y179.060 E99.3892
G1 X0.940 Y127.635 E101.5662
G1 X0.940 Y127.069 E101.5831
G1 X52.931 Y179.060 E103.7841
G1 X53.497 Y179.060 E103.8010
G1 X0.940 Y126.503 E106.0259
G1 X0.940 Y125.938 E106.0428
G1 X54.062 Y179.060 E108.2917
G1 X54.628 Y179.060 E108.3086
G1 X0.940 Y125.372 E110.5814
G1 X0.940 Y124.806 E110.5983
G1 X55.194 Y179.060 E112.8950
G1 X55.759 Y179.060 E112.9120
G1 X0.940 Y124.241 E115.2327
G1 X0.940 Y123.675 E115.2496
G1 X56.325 Y179.060 E117.5942
G1 X56.891 Y179.060 E117.6111
G1 X0.940 Y123.109 E119.9797
G1 X0.940 Y122.544 E119.9966
G1 X57.456 Y179.060 E122.3892
G1 X58.022 Y179.060 E122.4061
G1 X0.940 Y121.978 E124.8226
G1 X0.940 Y121.412 E124.8395
G1 X58.588 Y179.060 E127.2799
G1 X59.153 Y179.060 E127.2968
G1 X0.940 Y120.847 E129.7612
G1 X0.940 Y120.281 E129.7781
G1 X59.719 Y179.060 E132.2665
G1 X60.285 Y179.060 E132.2834
G1 X0.940 Y119.715 E134.7956
G1 X0.940 Y119.150 E134.8126
G1 X60.850 Y179.060 E137.3488
G1 X61.416 Y179.060 E137.3657
G1 X0.940 Y118.584 E139.9259
G1 X0.940 Y118.018 E139.9428
G1 X61.982 Y179.060 E142.5269
G1 X62.547 Y179.060 E142.5438
G1 X0.940 Y117.453 E145.1519
G1 X0.940 Y116.887 E145.1688
G1 X63.113 Y179.060 E147.8008
G1 X63.679 Y179.060 E147.8177
G1 X0.940 Y116.321 E150.4737
G1 X0.940 Y115.755 E150.4906
G1 X64.245 Y179.060 E153.1705
G1 X64.810 Y179.060 E153.1874
G1 X0.940 Y115.190 E155.8913
G1 X0.940 Y114.624 E155.9082
G1 X65.376 Y179.060 E158.6360
G1 X65.942 Y179.060 E158.6529
G1 X0.940 Y114.058 E161.4046
G1 X0.940 Y113.493 E161.4216
G1 X66.507 Y179.060 E164.1972
G1 X67.073 Y179.060 E164.2142
G1 X0.940 Y112.927 E167.0138
G1 X0.940 Y112.361 E167.0307
G1 X67.639 Y179.060 E169.8543
G1 X68.204 Y179.060 E169.8712
G1 X0.940 Y111.796 E172.7187
G1 X0.940 Y111.230 E172.7357
G1 X68.770 Y179.060 E175.6071
G1 X69.336 Y179.060 E175.6241
G1 X0.940 Y110.664 E178.5195
G1 X0.940 Y110.099 E178.5364
G1 X69.901 Y179.060 E181.4558
G1 X70.467 Y179.060 E181.4727
G1 X0.940 Y109.533 E184.4160
G1 X0.940 Y108.967 E184.4330
G1 X71.033 Y179.060 E187.4002
G1 X71.598 Y179.060 E187.4171
G1 X0.940 Y108.402 E190.4083
G1 X0.940 Y107.836 E190.4253
G1 X72.164 Y179.060 E193.4404
G1 X72.730 Y179.060 E193.4574
G1 X0.940 Y107.270 E196.4965
G1 X0.940 Y106.704 E196.5134
G1 X73.296 Y179.060 E199.5764
G1 X73.861 Y179.060 E199.5934
G1 X0.940 Y106.139 E202.6804
G1 X0.940 Y105.573 E202.6973
G1 X74.427 Y179.060 E205.8082
G1 X74.993 Y179.060 E205.8252
G1 X0.940 Y105.007 E208.9600
G1 X0.940 Y104.442 E208.9770
G1 X75.558 Y179.060 E212.1358
G1 X76.124 Y179.060 E212.1527
G1 X0.940 Y103.876 E215.3355
G1 X0.940 Y103.310 E215.3525
G1 X76.690 Y179.060 E218.5592
G1 X77.255 Y179.060 E218.5761
G1 X0.940 Y102.745 E221.8068
G1 X0.940 Y102.179 E221.8237
G1 X77.821 Y179.060 E225.0783
G1 X78.387 Y179.060 E225.0953
G1 X0.940 Y101.613 E228.3739
G1 X0.940 Y101.048 E228.3908
G1 X78.952 Y179.060 E231.6933
G1 X79.518 Y179.060 E231.7102
G1 X0.940 Y100.482 E235.0367
G1 X0.940 Y99.916 E235.0536
G1 X80.084 Y179.060 E238.4040
G1 X80.649 Y179.060 E238.4210
G1 X0.940 Y99.351 E241.7953
G1 X0.940 Y98.785 E241.8123
G1 X81.215 Y179.060 E245.2106
G1 X81.781 Y179.060 E245.2275
G1 X0.940 Y98.219 E248.6498
G1 X0.940 Y97.654 E248.6667
G1 X82.346 Y179.060 E252.1129
G1 X82.912 Y179.060 E252.1298
G1 X0.940 Y97.088 E255.6000
G1 X0.940 Y96.522 E255.6169
G1 X83.478 Y179.060 E259.1110
G1 X84.044 Y179.060 E259.1279
G1 X0.940 Y95.956 E262.6460
G1 X0.940 Y95.391 E262.6629
G1 X84.609 Y179.060 E266.2049
G1 X85.175 Y179.060 E266.2218
G1 X0.940 Y94.825 E269.7878
G1 X0.940 Y94.259 E269.8047
G1 X85.741 Y179.060 E273.3946
G1 X86.306 Y179.060 E273.4115
G1 X0.940 Y93.694 E277.0253
G1 X0.940 Y93.128 E277.0423
G1 X86.872 Y179.060 E280.6801
G1 X87.438 Y179.060 E280.6970
G1 X0.940 Y92.562 E284.3587
G1 X0.940 Y91.997 E284.3757
G1 X88.003 Y179.060 E288.0613
G1 X88.569 Y179.060 E288.0783
G1 X0.940 Y91.431 E291.7879
G1 X0.940 Y90.865 E291.8048
G1 X89.135 Y179.060 E295.5384
G1 X89.700 Y179.060 E295.5553
G1 X0.940 Y90.300 E299.3128
G1 X0.940 Y89.734 E299.3298
G1 X90.266 Y179.060 E303.1112
G1 X90.832 Y179.060 E303.1282
G1 X0.940 Y89.168 E306.9336
G1 X0.940 Y88.603 E306.9505
G1 X91.397 Y179.060 E310.7799
G1 X91.963 Y179.060 E310.7968
G1 X0.940 Y88.037 E314.6501
G1 X0.940 Y87.471 E314.6670
G1 X92.529 Y179.060 E318.5443
G1 X93.095 Y179.060 E318.5612
G1 X0.940 Y86.905 E322.4624
G1 X0.940 Y86.340 E322.4793
G1 X93.660 Y179.060 E326.4045
