; G-Code generated by Simplify3D(R) Version 4.1.2
; Jul 31, 2025 at 2:32:46 PM
; Settings Summary
;   processName,Process1
;   applyToModels,MWR-31072025
;   profileName,Default
;   profileVersion,2017-03-01 08:00:00
;   baseProfile,
;   printMaterial,PLA
;   printQuality,Medium
;   printExtruders,
;   extruderName,Primary Extruder
;   extruderToolheadNumber,0
;   extruderDiameter,0.35
;   extruderAutoWidth,0
;   extruderWidth,0.4
;   extrusionMultiplier,0.9
;   extruderUseRetract,1
;   extruderRetractionDistance,1
;   extruderExtraRestartDistance,0
;   extruderRetractionZLift,0
;   extruderRetractionSpeed,1800
;   extruderUseCoasting,0
;   extruderCoastingDistance,0.2
;   extruderUseWipe,0
;   extruderWipeDistance,5
;   primaryExtruder,0
;   layerHeight,0.2
;   topSolidLayers,3
;   bottomSolidLayers,3
;   perimeterOutlines,2
;   printPerimetersInsideOut,1
;   startPointOption,2
;   startPointOriginX,0
;   startPointOriginY,0
;   sequentialIslands,0
;   spiralVaseMode,0
;   firstLayerHeightPercentage,100
;   firstLayerWidthPercentage,100
;   firstLayerUnderspeed,0.5
;   useRaft,0
;   raftExtruder,0
;   raftTopLayers,3
;   raftBaseLayers,2
;   raftOffset,3
;   raftSeparationDistance,0.14
;   raftTopInfill,100
;   aboveRaftSpeedMultiplier,0.3
;   useSkirt,1
;   skirtExtruder,0
;   skirtLayers,1
;   skirtOutlines,2
;   skirtOffset,4
;   usePrimePillar,0
;   primePillarExtruder,999
;   primePillarWidth,12
;   primePillarLocation,7
;   primePillarSpeedMultiplier,1
;   useOozeShield,0
;   oozeShieldExtruder,999
;   oozeShieldOffset,2
;   oozeShieldOutlines,1
;   oozeShieldSidewallShape,1
;   oozeShieldSidewallAngle,30
;   oozeShieldSpeedMultiplier,1
;   infillExtruder,0
;   internalInfillPattern,Rectilinear
;   externalInfillPattern,Rectilinear
;   infillPercentage,20
;   outlineOverlapPercentage,15
;   infillExtrusionWidthPercentage,100
;   minInfillLength,5
;   infillLayerInterval,1
;   internalInfillAngles,45,-45
;   overlapInternalInfillAngles,0
;   externalInfillAngles,45,-45
;   generateSupport,0
;   supportExtruder,0
;   supportInfillPercentage,30
;   supportExtraInflation,0
;   supportBaseLayers,0
;   denseSupportExtruder,0
;   denseSupportLayers,0
;   denseSupportInfillPercentage,70
;   supportLayerInterval,1
;   supportHorizontalPartOffset,0.3
;   supportUpperSeparationLayers,1
;   supportLowerSeparationLayers,1
;   supportType,0
;   supportGridSpacing,4
;   maxOverhangAngle,45
;   supportAngles,0
;   temperatureName,Primary Extruder
;   temperatureNumber,0
;   temperatureSetpointCount,1
;   temperatureSetpointLayers,1
;   temperatureSetpointTemperatures,190
;   temperatureStabilizeAtStartup,1
;   temperatureHeatedBed,0
;   fanLayers,1,2
;   fanSpeeds,0,100
;   blipFanToFullPower,0
;   adjustSpeedForCooling,1
;   minSpeedLayerTime,15
;   minCoolingSpeedSlowdown,20
;   increaseFanForCooling,0
;   minFanLayerTime,45
;   maxCoolingFanSpeed,100
;   increaseFanForBridging,0
;   bridgingFanSpeed,100
;   use5D,1
;   relativeEdistances,0
;   allowEaxisZeroing,1
;   independentExtruderAxes,0
;   includeM10123,0
;   stickySupport,1
;   applyToolheadOffsets,0
;   gcodeXoffset,0
;   gcodeYoffset,0
;   gcodeZoffset,0
;   overrideMachineDefinition,0
;   machineTypeOverride,0
;   strokeXoverride,200
;   strokeYoverride,200
;   strokeZoverride,200
;   originOffsetXoverride,0
;   originOffsetYoverride,0
;   originOffsetZoverride,0
;   homeXdirOverride,-1
;   homeYdirOverride,-1
;   homeZdirOverride,-1
;   flipXoverride,1
;   flipYoverride,-1
;   flipZoverride,1
;   toolheadOffsets,0,0|0,0|0,0|0,0|0,0|0,0
;   overrideFirmwareConfiguration,0
;   firmwareTypeOverride,RepRap (Marlin/Repetier/Sprinter)
;   GPXconfigOverride,r2
;   baudRateOverride,115200
;   overridePrinterModels,0
;   printerModelsOverride
;   startingGcode,G28 ; home all axes
;   layerChangeGcode,
;   retractionGcode,
;   toolChangeGcode,
;   endingGcode,M104 S0 ; turn off extruder,M140 S0 ; turn off bed,M84 ; disable motors
;   exportFileFormat,gcode
;   celebration,0
;   celebrationSong,Random Song
;   postProcessing,
;   defaultSpeed,3600
;   outlineUnderspeed,0.5
;   solidInfillUnderspeed,0.8
;   supportUnderspeed,0.8
;   rapidXYspeed,4800
;   rapidZspeed,1000
;   minBridgingArea,50
;   bridgingExtraInflation,0
;   bridgingExtrusionMultiplier,1
;   bridgingSpeedMultiplier,1
;   useFixedBridgingAngle,0
;   fixedBridgingAngle,0
;   applyBridgingToPerimeters,0
;   filamentDiameters,1.75|1.75|1.75|1.75|1.75|1.75
;   filamentPricesPerKg,46|46|46|46|46|46
;   filamentDensities,1.25|1.25|1.25|1.25|1.25|1.25
;   useMinPrintHeight,0
;   minPrintHeight,0
;   useMaxPrintHeight,0
;   maxPrintHeight,0
;   useDiaphragm,0
;   diaphragmLayerInterval,20
;   robustSlicing,1
;   mergeAllIntoSolid,0
;   onlyRetractWhenCrossingOutline,1
;   retractBetweenLayers,1
;   useRetractionMinTravel,0
;   retractionMinTravel,3
;   retractWhileWiping,0
;   onlyWipeOutlines,1
;   avoidCrossingOutline,0
;   maxMovementDetourFactor,3
;   toolChangeRetractionDistance,12
;   toolChangeExtraRestartDistance,-0.5
;   toolChangeRetractionSpeed,600
;   externalThinWallType,0
;   internalThinWallType,2
;   thinWallAllowedOverlapPercentage,10
;   singleExtrusionMinLength,1
;   singleExtrusionMinPrintingWidthPercentage,50
;   singleExtrusionMaxPrintingWidthPercentage,200
;   singleExtrusionEndpointExtension,0.2
;   horizontalSizeCompensation,0
G90
M82
M106 S0
M104 S190 T0
M109 S190 T0
G28 ; home all axes
; process Process1
; layer 1, Z = 0.200
T0
G92 E0.0000
G1 E-1.0000 F1800
; feature skirt
; tool H0.200 W0.400
G1 Z0.200 F1000
G1 X-4.600 Y-1.905 F4800
G1 E0.0000 F1800
G92 E0.0000
G1 X-1.905 Y-4.600 E0.1141 F1800
G1 X241.905 Y-4.600 E7.4123
G1 X244.600 Y-1.905 E7.5264
G1 X244.600 Y181.905 E13.0286
G1 X241.905 Y184.600 E13.1427
G1 X-1.905 Y184.600 E20.4410
G1 X-4.600 Y181.905 E20.5550
G1 X-4.600 Y-1.905 E26.0572
G92 E0.0000
G1 E-1.0000 F1800
G1 X-4.200 Y-1.740 F4800
G1 E0.0000 F1800
G92 E0.0000
G1 X-1.740 Y-4.200 E0.1042 F1800
G1 X241.740 Y-4.200 E7.3925
G1 X244.200 Y-1.740 E7.4966
G1 X244.200 Y181.740 E12.9889
G1 X241.740 Y184.200 E13.0931
G1 X-1.740 Y184.200 E20.3814
G1 X-4.200 Y181.740 E20.4856
G1 X-4.200 Y-1.740 E25.9779
G92 E0.0000
G1 E-1.0000 F1800
; feature inner perimeter
G1 X0.600 Y0.600 F4800
G1 E0.0000 F1800
G92 E0.0000
G1 X239.400 Y0.600 E7.1483 F1350
G1 X239.400 Y179.400 E12.5005
G1 X0.600 Y179.400 E19.6488
G1 X0.600 Y0.600 E25.0010
; feature outer perimeter
G1 X0.200 Y0.200 F4800
G92 E0.0000
G1 X239.800 Y0.200 E7.1722 F900
G1 X239.800 Y179.800 E12.5484
G1 X0.200 Y179.800 E19.7206
G1 X0.200 Y0.200 E25.0968
; feature inner perimeter
G1 X73.397 Y120.398 F4800
G92 E0.0000
G1 X73.397 Y132.603 E0.3653 F1350
G1 X92.602 Y132.603 E0.9402
G1 X92.602 Y120.398 E1.3056
G1 X73.397 Y120.398 E1.8805
; feature outer perimeter
G1 X73.797 Y120.798 F4800
G92 E0.0000
G1 X73.797 Y132.203 E0.3414 F900
G1 X92.202 Y132.203 E0.8923
G1 X92.202 Y120.798 E1.2337
G1 X73.797 Y120.798 E1.7847
; feature solid layer
G1 X73.565 Y132.943 F4800
G92 E0.0000
G1 X119.682 Y179.060 E1.9523 F1440
G1 X120.247 Y179.060 E1.9692
G1 X74.130 Y132.943 E3.9215
G1 X74.696 Y132.943 E3.9384
G1 X120.813 Y179.060 E5.8907
G1 X121.379 Y179.060 E5.9076
G1 X75.262 Y132.943 E7.8599
G1 X75.827 Y132.943 E7.8769
G1 X121.944 Y179.060 E9.8291
G1 X122.510 Y179.060 E9.8461
G1 X76.393 Y132.943 E11.7984
G1 X76.959 Y132.943 E11.8153
G1 X123.076 Y179.060 E13.7676
G1 X123.642 Y179.060 E13.7845
G1 X77.525 Y132.943 E15.7368
G1 X78.090 Y132.943 E15.7537
G1 X124.207 Y179.060 E17.7060
G1 X124.773 Y179.060 E17.7229
G1 X78.656 Y132.943 E19.6752
G1 X79.222 Y132.943 E19.6922
G1 X125.339 Y179.060 E21.6444
G1 X125.904 Y179.060 E21.6614
G1 X79.787 Y132.943 E23.6137
G1 X80.353 Y132.943 E23.6306
G1 X126.470 Y179.060 E25.5829
G1 X127.036 Y179.060 E25.5998
G1 X80.919 Y132.943 E27.5521
G1 X81.484 Y132.943 E27.5690
G1 X127.601 Y179.060 E29.5213
G1 X128.167 Y179.060 E29.5382
G1 X82.050 Y132.943 E31.4905
G1 X82.616 Y132.943 E31.5075
G1 X128.733 Y179.060 E33.4597
G1 X129.298 Y179.060 E33.4767
G1 X83.181 Y132.943 E35.4290
G1 X83.747 Y132.943 E35.4459
G1 X129.864 Y179.060 E37.3982
G1 X130.430 Y179.060 E37.4151
G1 X84.313 Y132.943 E39.3674
G1 X84.878 Y132.943 E39.3843
G1 X130.995 Y179.060 E41.3366
G1 X131.561 Y179.060 E41.3535
G1 X85.444 Y132.943 E43.3058
G1 X86.010 Y132.943 E43.3227
G1 X132.127 Y179.060 E45.2750
G1 X132.692 Y179.060 E45.2920
G1 X86.575 Y132.943 E47.2442
G1 X87.141 Y132.943 E47.2612
G1 X133.258 Y179.060 E49.2135
G1 X133.824 Y179.060 E49.2304
G1 X87.707 Y132.943 E51.1827
G1 X88.273 Y132.943 E51.1996
G1 X134.390 Y179.060 E53.1519
G1 X134.955 Y179.060 E53.1688
G1 X88.838 Y132.943 E55.1211
G1 X89.404 Y132.943 E55.1380
G1 X135.521 Y179.060 E57.0903
G1 X136.087 Y179.060 E57.1073
G1 X89.970 Y132.943 E59.0595
G1 X90.535 Y132.943 E59.0765
G1 X136.652 Y179.060 E61.0288
G1 X137.218 Y179.060 E61.0457
G1 X91.101 Y132.943 E62.9980
G1 X91.667 Y132.943 E63.0149
G1 X137.784 Y179.060 E64.9672
G1 X138.349 Y179.060 E64.9841
G1 X92.232 Y132.943 E66.9364
G1 X92.798 Y132.943 E66.9533
G1 X138.915 Y179.060 E68.9056
G1 X139.481 Y179.060 E68.9226
G1 X92.942 Y132.521 E70.8927
G1 X92.942 Y131.956 E70.9096
G1 X140.046 Y179.060 E72.9037
G1 X140.612 Y179.060 E72.9206
G1 X92.942 Y131.390 E74.9387
G1 X92.942 Y130.824 E74.9556
G1 X141.178 Y179.060 E76.9976
G1 X141.743 Y179.060 E77.0145
G1 X92.942 Y130.259 E79.0804
G1 X92.942 Y129.693 E79.0974
G1 X142.309 Y179.060 E81.1872
G1 X142.875 Y179.060 E81.2042
G1 X92.942 Y129.127 E83.3180
G1 X92.942 Y128.561 E83.3349
G1 X143.441 Y179.060 E85.4727
G1 X144.006 Y179.060 E85.4896
G1 X92.942 Y127.996 E87.6513
G1 X92.942 Y127.430 E87.6683
G1 X144.572 Y179.060 E89.8539
G1 X145.138 Y179.060 E89.8709
G1 X92.942 Y126.864 E92.0805
G1 X92.942 Y126.299 E92.0974
G1 X145.703 Y179.060 E94.3310
G1 X146.269 Y179.060 E94.3479
G1 X92.942 Y125.733 E96.6054
G1 X92.942 Y125.167 E96.6223
G1 X146.835 Y179.060 E98.9038
G1 X147.400 Y179.060 E98.9207
G1 X92.942 Y124.602 E101.2261
G1 X92.942 Y124.036 E101.2430
G1 X147.966 Y179.060 E103.5724
G1 X148.532 Y179.060 E103.5893
G1 X92.942 Y123.470 E105.9426
G1 X92.942 Y122.905 E105.9595
G1 X149.097 Y179.060 E108.3368
G1 X149.663 Y179.060 E108.3537
G1 X92.942 Y122.339 E110.7549
G1 X92.942 Y121.773 E110.7718
G1 X150.229 Y179.060 E113.1970
G1 X150.794 Y179.060 E113.2139
G1 X92.942 Y121.208 E115.6630
G1 X92.942 Y120.642 E115.6799
G1 X151.360 Y179.060 E118.1529
G1 X151.926 Y179.060 E118.1699
G1 X92.942 Y120.076 E120.6668
G92 E0.0000
G1 E-1.0000 F1800
G1 X1.453 Y179.060 F4800
G1 E0.0000 F1800
G92 E0.0000
G1 X0.940 Y178.547 E0.0217 F1440
G1 X0.940 Y177.981 E0.0387
G1 X2.019 Y179.060 E0.0844
G1 X2.585 Y179.060 E0.1013
G1 X0.940 Y177.415 E0.1709
G1 X0.940 Y176.849 E0.1879
G1 X3.151 Y179.060 E0.2814
G1 X3.716 Y179.060 E0.2984
G1 X0.940 Y176.284 E0.4159
G1 X0.940 Y175.718 E0.4328
G1 X4.282 Y179.060 E0.5743
G1 X4.848 Y179.060 E0.5912
G1 X0.940 Y175.152 E0.7566
G1 X0.940 Y174.587 E0.7736
G1 X5.413 Y179.060 E0.9629
G1 X5.979 Y179.060 E0.9799
G1 X0.940 Y174.021 E1.1932
G1 X0.940 Y173.455 E1.2101
G1 X6.545 Y179.060 E1.4474
G1 X7.110 Y179.060 E1.4643
G1 X0.940 Y172.890 E1.7255
G1 X0.940 Y172.324 E1.7425
G1 X7.676 Y179.060 E2.0276
G1 X8.242 Y179.060 E2.0446
G1 X0.940 Y171.758 E2.3537
G1 X0.940 Y171.193 E2.3706
G1 X8.807 Y179.060 E2.7036
G1 X9.373 Y179.060 E2.7206
G1 X0.940 Y170.627 E3.0776
G1 X0.940 Y170.061 E3.0945
G1 X9.939 Y179.060 E3.4755
G1 X10.504 Y179.060 E3.4924
G1 X0.940 Y169.496 E3.8973
G1 X0.940 Y168.930 E3.9142
G1 X11.070 Y179.060 E4.3431
G1 X11.636 Y179.060 E4.3600
G1 X0.940 Y168.364 E4.8128
G1 X0.940 Y167.799 E4.8297
G1 X12.201 Y179.060 E5.3064
G1 X12.767 Y179.060 E5.3234
G1 X0.940 Y167.233 E5.8241
G1 X0.940 Y166.667 E5.8410
G1 X13.333 Y179.060 E6.3656
G1 X13.899 Y179.060 E6.3826
G1 X0.940 Y166.101 E6.9311
G1 X0.940 Y165.536 E6.9481
G1 X14.464 Y179.060 E7.5206
G1 X15.030 Y179.060 E7.5375
G1 X0.940 Y164.970 E8.1340
G1 X0.940 Y164.404 E8.1509
G1 X15.596 Y179.060 E8.7714
G1 X16.161 Y179.060 E8.7883
G1 X0.940 Y163.839 E9.4327
G1 X0.940 Y163.273 E9.4496
G1 X16.727 Y179.060 E10.1179
G1 X17.293 Y179.060 E10.1348
G1 X0.940 Y162.707 E10.8271
G1 X0.940 Y162.142 E10.8440
G1 X17.858 Y179.060 E11.5602
G1 X18.424 Y179.060 E11.5772
G1 X0.940 Y161.576 E12.3173
G1 X0.940 Y161.010 E12.3343
G1 X18.990 Y179.060 E13.0984
G1 X19.555 Y179.060 E13.1153
G1 X0.940 Y160.445 E13.9033
G1 X0.940 Y159.879 E13.9203
G1 X20.121 Y179.060 E14.7323
G1 X20.687 Y179.060 E14.7492
G1 X0.940 Y159.313 E15.5852
G1 X0.940 Y158.748 E15.6021
G1 X21.252 Y179.060 E16.4620
G1 X21.818 Y179.060 E16.4789
G1 X0.940 Y158.182 E17.3627
G1 X0.940 Y157.616 E17.3797
G1 X22.384 Y179.060 E18.2875
G1 X22.950 Y179.060 E18.3044
G1 X0.940 Y157.050 E19.2361
G1 X0.940 Y156.485 E19.2531
G1 X23.515 Y179.060 E20.2088
G1 X24.081 Y179.060 E20.2257
G1 X0.940 Y155.919 E21.2053
G1 X0.940 Y155.353 E21.2222
G1 X24.647 Y179.060 E22.2258
G1 X25.212 Y179.060 E22.2428
G1 X0.940 Y154.788 E23.2703
G1 X0.940 Y154.222 E23.2872
G1 X25.778 Y179.060 E24.3387
G1 X26.344 Y179.060 E24.3556
G1 X0.940 Y153.656 E25.4310
G1 X0.940 Y153.091 E25.4480
G1 X26.909 Y179.060 E26.5473
G1 X27.475 Y179.060 E26.5643
G1 X0.940 Y152.525 E27.6876
G1 X0.940 Y151.959 E27.7045
G1 X28.041 Y179.060 E28.8518
G1 X28.606 Y179.060 E28.8687
G1 X0.940 Y151.394 E30.0399
G1 X0.940 Y150.828 E30.0568
G1 X29.172 Y179.060 E31.2520
G1 X29.738 Y179.060 E31.2689
G1 X0.940 Y150.262 E32.4880
G1 X0.940 Y149.697 E32.5050
G1 X30.303 Y179.060 E33.7480
G1 X30.869 Y179.060 E33.7649
G1 X0.940 Y149.131 E35.0319
G1 X0.940 Y148.565 E35.0489
G1 X31.435 Y179.060 E36.3398
G1 X32.000 Y179.060 E36.3568
G1 X0.940 Y148.000 E37.6716
G1 X0.940 Y147.434 E37.6886
G1 X32.566 Y179.060 E39.0274
G1 X33.132 Y179.060 E39.0443
G1 X0.940 Y146.868 E40.4071
G1 X0.940 Y146.302 E40.4241
G1 X33.698 Y179.060 E41.8108
G1 X34.263 Y179.060 E41.8277
G1 X0.940 Y145.737 E43.2384
G1 X0.940 Y145.171 E43.2553
G1 X34.829 Y179.060 E44.6900
G1 X35.395 Y179.060 E44.7069
G1 X0.940 Y144.605 E46.1655
G1 X0.940 Y144.040 E46.1824
G1 X35.960 Y179.060 E47.6649
G1 X36.526 Y179.060 E47.6819
G1 X0.940 Y143.474 E49.1883
G1 X0.940 Y142.908 E49.2053
G1 X37.092 Y179.060 E50.7357
G1 X37.657 Y179.060 E50.7526
G1 X0.940 Y142.343 E52.3070
G1 X0.940 Y141.777 E52.3239
G1 X38.223 Y179.060 E53.9022
G1 X38.789 Y179.060 E53.9192
G1 X0.940 Y141.211 E55.5214
G1 X0.940 Y140.646 E55.5384
G1 X39.354 Y179.060 E57.1646
G1 X39.920 Y179.060 E57.1815
G1 X0.940 Y140.080 E58.8316
G1 X0.940 Y139.514 E58.8486
G1 X40.486 Y179.060 E60.5227
G1 X41.051 Y179.060 E60.5396
G1 X0.940 Y138.949 E62.2377
G1 X0.940 Y138.383 E62.2546
G1 X41.617 Y179.060 E63.9766
G1 X42.183 Y179.060 E63.9935
G1 X0.940 Y137.817 E65.7395
G1 X0.940 Y137.252 E65.7564
G1 X42.748 Y179.060 E67.5263
G1 X43.314 Y179.060 E67.5432
G1 X0.940 Y136.686 E69.3371
G1 X0.940 Y136.120 E69.3540
G1 X43.880 Y179.060 E71.1718
G1 X44.446 Y179.060 E71.1887
G1 X0.940 Y135.554 E73.0304
G1 X0.940 Y134.989 E73.0474
G1 X45.011 Y179.060 E74.9130
G1 X45.577 Y179.060 E74.9300
G1 X0.940 Y134.423 E76.8196
G1 X0.940 Y133.857 E76.8365
G1 X46.143 Y179.060 E78.7501
G1 X46.708 Y179.060 E78.7670
G1 X0.940 Y133.292 E80.7046
G1 X0.940 Y132.726 E80.7215
G1 X47.274 Y179.060 E82.6830
G1 X47.840 Y179.060 E82.6999
G1 X0.940 Y132.160 E84.6853
G1 X0.940 Y131.595 E84.7022
G1 X48.405 Y179.060 E86.7116
G1 X48.971 Y179.060 E86.7285
G1 X0.940 Y131.029 E88.7619
G1 X0.940 Y130.463 E88.7788
G1 X49.537 Y179.060 E90.8360
G1 X50.102 Y179.060 E90.8530
G1 X0.940 Y129.898 E92.9342
G1 X0.940 Y129.332 E92.9511
G1 X50.668 Y179.060 E95.0563
G1 X51.234 Y179.060 E95.0732
G1 X0.940 Y128.766 E97.2023
G1 X0.940 Y128.201 E97.2192
G1 X51.799 Y179.060 E99.3723
G1 X52.365 Y179.060 E99.3892
G1 X0.940 Y127.635 E101.5662
G1 X0.940 Y127.069 E101.5831
G1 X52.931 Y179.060 E103.7841
G1 X53.497 Y179.060 E103.8010
G1 X0.940 Y126.503 E106.0259
G1 X0.940 Y125.938 E106.0428
G1 X54.062 Y179.060 E108.2917
G1 X54.628 Y179.060 E108.3086
G1 X0.940 Y125.372 E110.5814
G1 X0.940 Y124.806 E110.5983
G1 X55.194 Y179.060 E112.8950
G1 X55.759 Y179.060 E112.9120
G1 X0.940 Y124.241 E115.2327
G1 X0.940 Y123.675 E115.2496
G1 X56.325 Y179.060 E117.5942
